icons/communication/message-attach-24.svg

<svg width="24" height="24" viewBox="0 0 24 24" fill="none" xmlns="http://www.w3.org/2000/svg">
<path d="M13.875 8C13.4608 8 13.125 8.33579 13.125 8.75V12.75C13.125 13.1642 12.7892 13.5 12.375 13.5C11.9608 13.5 11.625 13.1642 11.625 12.75V8.75C11.625 7.50736 12.6324 6.5 13.875 6.5C15.1176 6.5 16.125 7.50736 16.125 8.75V12.875C16.125 14.877 14.502 16.5 12.5 16.5C10.498 16.5 8.875 14.877 8.875 12.875V10.25C8.875 9.83579 9.21079 9.5 9.625 9.5C10.0392 9.5 10.375 9.83579 10.375 10.25V12.875C10.375 14.0486 11.3264 15 12.5 15C13.6736 15 14.625 14.0486 14.625 12.875V8.75C14.625 8.33579 14.2892 8 13.875 8Z" fill="black"/>
<path fill-rule="evenodd" clip-rule="evenodd" d="M3.00001 11.5C3.00001 12.8408 3.27821 14.1184 3.78057 15.2767L2.08244 19.3131C1.7836 20.0234 2.36666 20.7906 3.13105 20.6928L8.3135 20.03C9.57728 20.6513 10.9989 21 12.5 21C17.7467 21 22 16.7467 22 11.5C22 6.25329 17.7467 2 12.5 2C7.2533 2 3.00001 6.25329 3.00001 11.5ZM12.5 3.5C8.08173 3.5 4.50001 7.08172 4.50001 11.5C4.50001 12.7385 4.78091 13.9092 5.28177 14.9539C5.39825 15.1969 5.37227 15.4713 5.23708 15.6828L3.80161 19.0948L8.34898 18.5132C8.48487 18.4958 8.61691 18.516 8.73469 18.5656C8.75906 18.5752 8.78317 18.5862 8.80691 18.5986C9.91092 19.1742 11.1663 19.5 12.5 19.5C16.9183 19.5 20.5 15.9183 20.5 11.5C20.5 7.08172 16.9183 3.5 12.5 3.5Z" fill="black"/>
</svg>

<svg xmlns="http://www.w3.org/2000/svg" width="24" height="24"><path d="M13.875 8a.75.75 0 00-.75.75v4a.75.75 0 01-1.5 0v-4a2.25 2.25 0 014.5 0v4.125a3.625 3.625 0 01-7.25 0V10.25a.75.75 0 011.5 0v2.625a2.125 2.125 0 004.25 0V8.75a.75.75 0 00-.75-.75z"/><path fill-rule="evenodd" d="M3 11.5c0 1.34.278 2.618.78 3.777l-1.698 4.036a1 1 0 001.05 1.38l5.181-.663A9.5 9.5 0 103 11.5zm9.5-8a8 8 0 00-7.218 11.454.75.75 0 01-.045.729l-1.435 3.412 4.547-.582a.746.746 0 01.458.086A8 8 0 1012.5 3.5z"/></svg>
